packages/tokens/icons/insightPanel2/size24Px.svg

<svg viewBox="0 0 24 24" fill="none" xmlns="http://www.w3.org/2000/svg" width="1em" height="1em"><rect x="4.5" y="2.5" width="15" height="19" rx="1.5" stroke="currentColor"/><path fill-rule="evenodd" clip-rule="evenodd" d="M11.5 10C11.2239 10 11 10.2239 11 10.5C11 10.7761 11.2239 11 11.5 11H16.5C16.7761 11 17 10.7761 17 10.5C17 10.2239 16.7761 10 16.5 10H11.5ZM11.5 12C11.2239 12 11 12.2239 11 12.5C11 12.7761 11.2239 13 11.5 13H14.5C14.7761 13 15 12.7761 15 12.5C15 12.2239 14.7761 12 14.5 12H11.5Z" fill="currentColor"/><rect x="7.5" y="10.5" width="2" height="2" rx="0.5" stroke="currentColor"/><path fill-rule="evenodd" clip-rule="evenodd" d="M11.5 15C11.2239 15 11 15.2239 11 15.5C11 15.7761 11.2239 16 11.5 16H16.5C16.7761 16 17 15.7761 17 15.5C17 15.2239 16.7761 15 16.5 15H11.5ZM11.5 17C11.2239 17 11 17.2239 11 17.5C11 17.7761 11.2239 18 11.5 18H14.5C14.7761 18 15 17.7761 15 17.5C15 17.2239 14.7761 17 14.5 17H11.5Z" fill="currentColor"/><rect x="7.5" y="15.5" width="2" height="2" rx="0.5" stroke="currentColor"/><circle cx="15" cy="6" r="1.5" stroke="currentColor"/><path d="M16.8536 7.14645L16.5 6.79289L15.7929 7.5L16.1464 7.85355L16.8536 7.14645ZM17.1464 8.85355C17.3417 9.04882 17.6583 9.04882 17.8536 8.85355C18.0488 8.65829 18.0488 8.34171 17.8536 8.14645L17.1464 8.85355ZM16.1464 7.85355L17.1464 8.85355L17.8536 8.14645L16.8536 7.14645L16.1464 7.85355Z" fill="currentColor"/><path d="M7.5 6.5H13.5" stroke="currentColor" stroke-linecap="round"/></svg>

<svg xmlns="http://www.w3.org/2000/svg" fill="none" viewBox="0 0 24 24" width="1em" height="1em"><rect width="15" height="19" x="4.5" y="2.5" stroke="currentColor" rx="1.5"/><path fill="currentColor" fill-rule="evenodd" d="M11.5 10a.5.5 0 0 0 0 1h5a.5.5 0 0 0 0-1h-5Zm0 2a.5.5 0 0 0 0 1h3a.5.5 0 0 0 0-1h-3Z" clip-rule="evenodd"/><rect width="2" height="2" x="7.5" y="10.5" stroke="currentColor" rx=".5"/><path fill="currentColor" fill-rule="evenodd" d="M11.5 15a.5.5 0 0 0 0 1h5a.5.5 0 0 0 0-1h-5Zm0 2a.5.5 0 0 0 0 1h3a.5.5 0 0 0 0-1h-3Z" clip-rule="evenodd"/><rect width="2" height="2" x="7.5" y="15.5" stroke="currentColor" rx=".5"/><circle cx="15" cy="6" r="1.5" stroke="currentColor"/><path fill="currentColor" d="m16.854 7.146-.354-.353-.707.707.353.354.708-.708Zm.292 1.708a.5.5 0 0 0 .708-.708l-.708.708Zm-1-1 1 1 .708-.708-1-1-.708.708Z"/><path stroke="currentColor" stroke-linecap="round" d="M7.5 6.5h6"/></svg>
